X: 259
T: Fang Fengzheng
L: 1/8
M: 2/4
K: G
d2g e [I:setbarnb 1]| 
d2B A | 
d2g e | 
d g B A | 
G3E | 
d e d d | 
E G B A | 
G4 | 
G Ad2 | 
e d B A | 
G A d B | 
A GD2 | 
G E D D | 
d2d G | 
A B A E | 
D4 |]

@@@ Tune index: 9133
